SVG/Norht-South.svg

<svg height="46" viewBox="0 0 34 46" width="34" xmlns="http://www.w3.org/2000/svg" xmlns:xlink="http://www.w3.org/1999/xlink"><filter id="a" height="167.5%" width="190%" x="-45%" y="-33.8%"><feOffset dx="0" dy="1" in="SourceAlpha" result="shadowOffsetOuter1"/><feGaussianBlur in="shadowOffsetOuter1" result="shadowBlurOuter1" stdDeviation=".9"/><feColorMatrix in="shadowBlurOuter1" result="shadowMatrixOuter1" type="matrix" values="0 0 0 0 0   0 0 0 0 0   0 0 0 0 0  0 0 0 0.65 0"/><feMerge><feMergeNode in="shadowMatrixOuter1"/><feMergeNode in="SourceGraphic"/></feMerge></filter><g fill="none" filter="url(#a)" transform="translate(7 5)"><path d="m6 1.41 3.59 3.59h-2.59v6h2.59l-3.59 3.59-3.59-3.59h2.59v-6h-2.59zm0-1.41-6 6h4v4h-4l6 6 6-6h-4v-4h4z" fill="#fff"/><path d="m7 7.5v-2.52h2.59l-3.59-3.57-3.59 3.57h2.59v2.52 3.5h-2.59l3.59 3.59 3.59-3.59h-2.59z" fill="#000"/></g></svg>

<svg width="18" height="18" viewBox="0 0 18 18" xmlns="http://www.w3.org/2000/svg"><defs><filter x="-26.7%" y="-13.8%" width="153.3%" height="140%" filterUnits="objectBoundingBox" id="a"><feOffset dy="1" in="SourceAlpha" result="shadowOffsetOuter1"/><feGaussianBlur stdDeviation=".9" in="shadowOffsetOuter1" result="shadowBlurOuter1"/><feColorMatrix values="0 0 0 0 0 0 0 0 0 0 0 0 0 0 0 0 0 0 0.65 0" in="shadowBlurOuter1" result="shadowMatrixOuter1"/><feMerge><feMergeNode in="shadowMatrixOuter1"/><feMergeNode in="SourceGraphic"/></feMerge></filter></defs><g filter="url(#a)" transform="translate(3 1)" fill="none"><path d="M6 1.41L9.59 5H7v6h2.59L6 14.59 2.41 11H5V5H2.41L6 1.41zM6 0L0 6h4v4H0l6 6 6-6H8V6h4L6 0z" fill="#FFF"/><path fill="#000" d="M7 7.5V4.98h2.59L6 1.41 2.41 4.98H5V11H2.41L6 14.59 9.59 11H7z"/></g></svg>
